X: 902
M: C
L: 1/8
K: C
V: 1
|:\
cdcA cGGA | cdcA GAcG |\
|:\
c2 (g/f/e) cg (e/f/g/e/) | cdcA GAcG |\
V: 2 clef=bass middle=d
|:\
c2c2 c2c2 | c2c2 c2c2 |\
d2d2 d2d2 | d2d2 d2d2 :|\
|:\
c2c2
c2c2 | c2c2 c2c2 |\
d2d2 d2d2 | d2d2 d2d2 :|

